X:27
T:Branle de Champagne
R:Branle double
C:Claude Gervaise
H:
<end>
<start>
XV eme siecle
O:France
Z:S. Piron
P:AAB
M:2/4
L:1/4
Q:1/4=210
K:C
c2|c2|B/2c/2 d|B2|c/2d/2e|dc|BA|1GE:|2G2|
|:G/2A/2B|AG|A2|A2|G/2A/2B|AG|A2|A2:|
<end>
<start>
